X: 42416
T: West End
R: mazurka
M: 3/4
K: Dminor
A3d|"Dm"f2f4|a3f|"Em"e2e4|f3e|"Dm"d2d3e|"Em" e3d|"A"^c2A4|
A3d|"Dm"f2f4|a3f|"Em"e2e4|f3e|"Dm"d2d3f|"Em"e3^c|"D"d2d4||
d3f|"D"a2a4|b3a|"Gm"g2e4|e3f|"Gm"g2a3g|f3e|"Dm"f2d4|
d3f|"D"a2a4|b3a|"Gm"g2e4|e3f|"Gm"g2 a3g|f3e|"Dm"d2d4||

